X: 95
T: No_32_Song_After_Making_the_Bows_and_Arrows.krn
N: Derived from No_32_Song_After_Making_the_Bows_and_Arrows.krn
%%abc-version 2.0
%%abcx-abcm2ps-target-version 5.9.1 (29 Sep 2008)
%%abc-creator hum2abc beta
%%abcx-conversion-date 2019/03/15 08:37:56
%%humdrum-veritas 565922548
%%humdrum-veritas-data 2528835495
%%linebreak <none>
%%barnumbers 0
L: 1/8
M: 2/4
K: A clef=bass
[K:clef=bass][M:2/4]D2C2 ||  
[M:3/4]A,B, A,3/F,/ F,C,/C,/ | 
F,2F,2z2 ]|:  
[M:2/4]C2A,/A,G,/ | 
(G,3//F,//)F, F,C,/C,/ ||  
[M:3/4]F,2F,2z2 | 
C2A,3G, ||  
[M:2/4]A,2G,3/F,/ | 
(3F,G,F, F,3/C,/ ||  
[M:3/4]F,F,F,2z2 ||  
[M:2/4]G,/F,3/ F,3/C,/ | 
F,F, F,3/C,/ ||  
[M:3/4]F,2F,4 :|]  



